leaf-circle-outline.svg

<svg fill="currentColor" viewBox="0 0 24 24"><path d="M8.04 16.34c1.01-2.51 2.15-5.38 6.46-6.34 0 0-5 0-6.62 4.63 0 0-.88-.88-.88-1.88s1-3.12 3.5-3.62c.71-.13 1.5-.26 2.28-.37 1.97-.26 3.86-.54 4.22-1.26 0 0-1.5 8.5-7 8.5-.18 0-.43-.06-.67-.15L8.86 17l-.95-.33zM12 4c4.41 0 8 3.59 8 8s-3.59 8-8 8-8-3.59-8-8 3.59-8 8-8m0-2C6.5 2 2 6.5 2 12s4.5 10 10 10 10-4.5 10-10S17.5 2 12 2"/></svg>

<svg  viewBox="0 0 24 24" fill="currentColor"><path  d="M8.04 16.34C9.05 13.83 10.19 10.96 14.5 10C14.5 10 9.5 10 7.88 14.63C7.88 14.63 7 13.75 7 12.75S8 9.63 10.5 9.13C11.21 9 12 8.87 12.78 8.76C14.75 8.5 16.64 8.22 17 7.5C17 7.5 15.5 16 10 16C9.82 16 9.57 15.94 9.33 15.85L8.86 17L7.91 16.67L8.04 16.34M12 4C16.41 4 20 7.59 20 12S16.41 20 12 20 4 16.41 4 12 7.59 4 12 4M12 2C6.5 2 2 6.5 2 12S6.5 22 12 22 22 17.5 22 12 17.5 2 12 2Z"/></svg>
